dist/img/svg/icon-arrow-btn.svg

<svg width="18" height="11" viewBox="0 0 18 11" fill="none" xmlns="http://www.w3.org/2000/svg">
<path fill-rule="evenodd" clip-rule="evenodd" d="M12.2181 0.230782C12.2878 0.157627 12.3705 0.0995869 12.4616 0.0599854C12.5527 0.0203839 12.6504 0 12.7491 0C12.8477 0 12.9454 0.0203839 13.0365 0.0599854C13.1276 0.0995869 13.2103 0.157627 13.28 0.230782L17.7797 4.94404C17.8495 5.01701 17.9049 5.1037 17.9427 5.19913C17.9805 5.29457 18 5.39688 18 5.50021C18 5.60353 17.9805 5.70584 17.9427 5.80128C17.9049 5.89671 17.8495 5.9834 17.7797 6.05637L13.28 10.7696C13.1392 10.9171 12.9482 11 12.7491 11C12.5499 11 12.3589 10.9171 12.2181 10.7696C12.0773 10.6221 11.9982 10.4221 11.9982 10.2135C11.9982 10.0049 12.0773 9.8048 12.2181 9.6573L16.1883 5.50021L12.2181 1.34311C12.1483 1.27014 12.0928 1.18346 12.055 1.08802C12.0172 0.992584 11.9978 0.890273 11.9978 0.786947C11.9978 0.683621 12.0172 0.58131 12.055 0.485874C12.0928 0.390438 12.1483 0.303753 12.2181 0.230782Z" fill="white"/>
<path fill-rule="evenodd" clip-rule="evenodd" d="M0 5.50021C0 5.29187 0.0790119 5.09206 0.219654 4.94474C0.360296 4.79743 0.551047 4.71466 0.749944 4.71466H16.4988C16.6977 4.71466 16.8884 4.79743 17.0291 4.94474C17.1697 5.09206 17.2487 5.29187 17.2487 5.50021C17.2487 5.70854 17.1697 5.90835 17.0291 6.05567C16.8884 6.20299 16.6977 6.28575 16.4988 6.28575H0.749944C0.551047 6.28575 0.360296 6.20299 0.219654 6.05567C0.0790119 5.90835 0 5.70854 0 5.50021Z" fill="white"/>
</svg>

<svg width="18" height="11" viewBox="0 0 18 11" fill="none" xmlns="http://www.w3.org/2000/svg"><path fill-rule="evenodd" clip-rule="evenodd" d="M12.218.23a.72.72 0 011.062 0l4.5 4.714A.79.79 0 0118 5.5a.818.818 0 01-.22.556l-4.5 4.714a.734.734 0 01-.53.23.737.737 0 01-.532-.23.806.806 0 01-.22-.556c0-.21.08-.41.22-.557l3.97-4.157-3.97-4.157a.79.79 0 01-.22-.556.818.818 0 01.22-.556z" fill="#fff"/><path fill-rule="evenodd" clip-rule="evenodd" d="M0 5.5c0-.208.079-.408.22-.555a.733.733 0 01.53-.23h15.749c.199 0 .39.082.53.23.14.147.22.347.22.555a.805.805 0 01-.22.556.733.733 0 01-.53.23H.749a.733.733 0 01-.53-.23A.805.805 0 010 5.5z" fill="#fff"/></svg>
